public/icons/icons8-warning.svg

<?xml version="1.0" encoding="UTF-8"?>
<!DOCTYPE svg PUBLIC "-//W3C//DTD SVG 1.1//EN" "http://www.w3.org/Graphics/SVG/1.1/DTD/svg11.dtd">
<svg xmlns="http://www.w3.org/2000/svg" version="1.1" width="48px" height="48px" style="shape-rendering:geometricPrecision; text-rendering:geometricPrecision; image-rendering:optimizeQuality; fill-rule:evenodd; clip-rule:evenodd" xmlns:xlink="http://www.w3.org/1999/xlink">
<g><path style="opacity:1" fill="#f7a022" d="M -0.5,-0.5 C 15.5,-0.5 31.5,-0.5 47.5,-0.5C 47.5,15.5 47.5,31.5 47.5,47.5C 31.5,47.5 15.5,47.5 -0.5,47.5C -0.5,31.5 -0.5,15.5 -0.5,-0.5 Z"/></g>
<g><path style="opacity:1" fill="#fffcf9" d="M 21.5,6.5 C 24.3245,6.08073 26.4912,7.08073 28,9.5C 32.3333,17.5 36.6667,25.5 41,33.5C 41.8249,35.7008 41.3249,37.5341 39.5,39C 28.8333,39.6667 18.1667,39.6667 7.5,39C 5.6751,37.5341 5.1751,35.7008 6,33.5C 10.6729,24.1464 15.8396,15.1464 21.5,6.5 Z"/></g>
<g><path style="opacity:1" fill="#f79f1e" d="M 22.5,16.5 C 23.7868,17.8714 24.4535,19.7047 24.5,22C 24.1667,23.8333 23.8333,25.6667 23.5,27.5C 22.5108,23.8927 22.1774,20.226 22.5,16.5 Z"/></g>
<g><path style="opacity:1" fill="#f9af47" d="M 22.5,30.5 C 25.8606,31.2032 26.1939,32.5365 23.5,34.5C 21.3576,33.5629 21.0243,32.2296 22.5,30.5 Z"/></g>
</svg>

<svg xmlns="http://www.w3.org/2000/svg" width="48" height="48" style="shape-rendering:geometricPrecision;text-rendering:geometricPrecision;image-rendering:optimizeQuality;fill-rule:evenodd;clip-rule:evenodd"><path fill="#f7a022" d="M-.5-.5h48v48h-48v-48Z" style="opacity:1"/><path fill="#fffcf9" d="M21.5 6.5c2.825-.42 4.991.58 6.5 3l13 24c.825 2.2.325 4.034-1.5 5.5a256.237 256.237 0 0 1-32 0c-1.825-1.466-2.325-3.3-1.5-5.5a267.566 267.566 0 0 1 15.5-27Z" style="opacity:1"/><path fill="#f79f1e" d="M22.5 16.5c1.287 1.371 1.953 3.205 2 5.5l-1 5.5a31.121 31.121 0 0 1-1-11Z" style="opacity:1"/><path fill="#f9af47" d="M22.5 30.5c3.36.703 3.694 2.036 1 4-2.142-.937-2.476-2.27-1-4Z" style="opacity:1"/></svg>
